Simply-Purple-Circles/scalable/apps/trashindicator.svg

<svg xmlns="http://www.w3.org/2000/svg" width="48" height="48" viewBox="0 0 12.7 12.7"><path d="M6.34.07a6.29 6.29 0 0 0-6.29 6.3 6.29 6.29 0 0 0 6.3 6.28 6.29 6.29 0 0 0 6.28-6.29A6.29 6.29 0 0 0 6.34.07zM6.32 1l.01.01a5.4 5.4 0 0 1 5.4 5.4 5.4 5.4 0 0 1-5.4 5.41 5.4 5.4 0 0 1-5.41-5.4A5.4 5.4 0 0 1 6.32 1zM5.27 3v.42H4.01a.36.36 0 0 0-.35.34h-.18c-.2 0-.36.06-.36.14v.28c0 .08.16.14.36.14h.18v5.02c0 .2.16.37.35.37H8.7c.2 0 .35-.17.35-.37V4.32h.18c.2 0 .36-.06.36-.14V3.9c0-.08-.16-.14-.36-.14h-.18a.36.36 0 0 0-.35-.34H7.43v-.43H5.27zm-.54 2.22h.36c.1 0 .18.08.18.18v3.23c0 .1-.08.18-.18.18h-.36a.18.18 0 0 1-.18-.18V5.4c0-.1.08-.18.18-.18zm1.44 0h.36c.1 0 .18.08.18.18v3.23c0 .1-.08.18-.18.18h-.36a.18.18 0 0 1-.18-.18V5.4c0-.1.08-.18.18-.18zm1.44 0h.36c.1 0 .18.08.18.18v3.23c0 .1-.08.18-.18.18H7.6a.18.18 0 0 1-.18-.18V5.4c0-.1.08-.18.18-.18z" fill="#963996"/></svg>

<?xml version="1.0" encoding="UTF-8" standalone="no"?>
<svg
   xmlns:dc="http://purl.org/dc/elements/1.1/"
   xmlns:cc="http://creativecommons.org/ns#"
   xmlns:rdf="http://www.w3.org/1999/02/22-rdf-syntax-ns#"
   xmlns:svg="http://www.w3.org/2000/svg"
   xmlns="http://www.w3.org/2000/svg"
   xmlns:sodipodi="http://sodipodi.sourceforge.net/DTD/sodipodi-0.dtd"
   xmlns:inkscape="http://www.inkscape.org/namespaces/inkscape"
   width="48"
   height="48"
   viewBox="0 0 12.7 12.7"
   version="1.1"
   id="svg4"
   sodipodi:docname="trashindicator.svg"
   inkscape:version="0.92.4 (5da689c313, 2019-01-14)">
  <metadata
     id="metadata10">
    <rdf:RDF>
      <cc:Work
         rdf:about="">
        <dc:format>image/svg+xml</dc:format>
        <dc:type
           rdf:resource="http://purl.org/dc/dcmitype/StillImage" />
        <dc:title></dc:title>
      </cc:Work>
    </rdf:RDF>
  </metadata>
  <defs
     id="defs8" />
  <sodipodi:namedview
     pagecolor="#ffffff"
     bordercolor="#666666"
     borderopacity="1"
     objecttolerance="10"
     gridtolerance="10"
     guidetolerance="10"
     inkscape:pageopacity="0"
     inkscape:pageshadow="2"
     inkscape:window-width="1087"
     inkscape:window-height="480"
     id="namedview6"
     showgrid="false"
     inkscape:zoom="4.9166667"
     inkscape:cx="2.1355932"
     inkscape:cy="24"
     inkscape:window-x="0"
     inkscape:window-y="25"
     inkscape:window-maximized="0"
     inkscape:current-layer="svg4" />
  <path
     d="M 6.34,0.07 A 6.29,6.29 0 0 0 0.05,6.37 6.29,6.29 0 0 0 6.35,12.65 6.29,6.29 0 0 0 12.63,6.36 6.29,6.29 0 0 0 6.34,0.07 Z M 6.32,1 6.33,1.01 a 5.4,5.4 0 0 1 5.4,5.4 5.4,5.4 0 0 1 -5.4,5.41 A 5.4,5.4 0 0 1 0.92,6.42 5.4,5.4 0 0 1 6.32,1 Z M 5.27,3 V 3.42 H 4.01 A 0.36,0.36 0 0 0 3.66,3.76 H 3.48 c -0.2,0 -0.36,0.06 -0.36,0.14 v 0.28 c 0,0.08 0.16,0.14 0.36,0.14 h 0.18 v 5.02 c 0,0.2 0.16,0.37 0.35,0.37 H 8.7 c 0.2,0 0.35,-0.17 0.35,-0.37 V 4.32 h 0.18 c 0.2,0 0.36,-0.06 0.36,-0.14 V 3.9 C 9.59,3.82 9.43,3.76 9.23,3.76 H 9.05 A 0.36,0.36 0 0 0 8.7,3.42 H 7.43 V 2.99 H 5.27 Z M 4.73,5.22 h 0.36 c 0.1,0 0.18,0.08 0.18,0.18 v 3.23 c 0,0.1 -0.08,0.18 -0.18,0.18 H 4.73 A 0.18,0.18 0 0 1 4.55,8.63 V 5.4 c 0,-0.1 0.08,-0.18 0.18,-0.18 z m 1.44,0 h 0.36 c 0.1,0 0.18,0.08 0.18,0.18 v 3.23 c 0,0.1 -0.08,0.18 -0.18,0.18 H 6.17 A 0.18,0.18 0 0 1 5.99,8.63 V 5.4 c 0,-0.1 0.08,-0.18 0.18,-0.18 z m 1.44,0 h 0.36 c 0.1,0 0.18,0.08 0.18,0.18 v 3.23 c 0,0.1 -0.08,0.18 -0.18,0.18 H 7.6 A 0.18,0.18 0 0 1 7.42,8.63 V 5.4 C 7.42,5.3 7.5,5.22 7.6,5.22 Z"
     id="path2"
     inkscape:connector-curvature="0"
     style="fill:#963996" />
</svg>
